public/images/home-iframe.svg

<svg width="89" height="89" viewBox="0 0 89 89" fill="none" xmlns="http://www.w3.org/2000/svg">
<g id="home-iframe">
<path id="Vector" d="M76.18 8.68182H13.29C12.3898 8.68182 11.66 9.4116 11.66 10.3118V10.3218C11.66 11.222 12.3898 11.9518 13.29 11.9518H76.18C77.0802 11.9518 77.81 11.222 77.81 10.3218V10.3118C77.81 9.4116 77.0802 8.68182 76.18 8.68182Z" fill="#AFE0DD"/>
<path id="Vector_2" d="M76.18 2.4718H13.29C12.3898 2.4718 11.66 3.20158 11.66 4.1018V4.1118C11.66 5.01203 12.3898 5.7418 13.29 5.7418H76.18C77.0802 5.7418 77.81 5.01203 77.81 4.1118V4.1018C77.81 3.20158 77.0802 2.4718 76.18 2.4718Z" fill="#AFE0DD"/>
<path id="Vector_3" d="M52.57 14.8918H13.29C12.3898 14.8918 11.66 15.6216 11.66 16.5218V16.5318C11.66 17.432 12.3898 18.1618 13.29 18.1618H52.57C53.4702 18.1618 54.2 17.432 54.2 16.5318V16.5218C54.2 15.6216 53.4702 14.8918 52.57 14.8918Z" fill="#AFE0DD"/>
<path id="Vector_4" d="M76.18 77.8718H13.29C12.3898 77.8718 11.66 78.6016 11.66 79.5018V79.5118C11.66 80.412 12.3898 81.1418 13.29 81.1418H76.18C77.0802 81.1418 77.81 80.412 77.81 79.5118V79.5018C77.81 78.6016 77.0802 77.8718 76.18 77.8718Z" fill="#AFE0DD"/>
<path id="Vector_5" d="M66.76 84.0818H40.12C39.2198 84.0818 38.49 84.8116 38.49 85.7118V85.7218C38.49 86.622 39.2198 87.3518 40.12 87.3518H66.76C67.6602 87.3518 68.39 86.622 68.39 85.7218V85.7118C68.39 84.8116 67.6602 84.0818 66.76 84.0818Z" fill="#AFE0DD"/>
<path id="Vector_6" d="M32.28 84.0818H13.1C12.1998 84.0818 11.47 84.8116 11.47 85.7118V85.7218C11.47 86.622 12.1998 87.3518 13.1 87.3518H32.28C33.1802 87.3518 33.91 86.622 33.91 85.7218V85.7118C33.91 84.8116 33.1802 84.0818 32.28 84.0818Z" fill="#AFE0DD"/>
<path id="Vector_7" d="M73.74 24.2818H15.25C13.1347 24.2818 11.42 25.9965 11.42 28.1118V67.6118C11.42 69.727 13.1347 71.4418 15.25 71.4418H73.74C75.8552 71.4418 77.57 69.727 77.57 67.6118V28.1118C77.57 25.9965 75.8552 24.2818 73.74 24.2818Z" fill="white"/>
<path id="Vector_8" d="M73.74 72.4418H15.26C12.59 72.4418 10.43 70.2718 10.43 67.6118V28.1218C10.43 25.4518 12.6 23.2918 15.26 23.2918H73.74C76.41 23.2918 78.57 25.4618 78.57 28.1218V67.6118C78.57 70.2818 76.4 72.4418 73.74 72.4418ZM15.26 25.2918C13.7 25.2918 12.43 26.5618 12.43 28.1218V67.6118C12.43 69.1718 13.7 70.4418 15.26 70.4418H73.74C75.3 70.4418 76.57 69.1718 76.57 67.6118V28.1218C76.57 26.5618 75.3 25.2918 73.74 25.2918H15.26Z" fill="#13706D"/>
<path id="Vector_9" d="M15.29 25.1418H31.31V36.0318C31.31 37.8318 29.85 39.2818 28.06 39.2818H12.24V28.1918C12.24 26.5018 13.61 25.1418 15.29 25.1418Z" fill="#13706D"/>
<path id="Vector_10" d="M20.01 36.1018C19.75 36.1018 19.5 36.0018 19.3 35.8118L16.41 32.9218C16.22 32.7318 16.12 32.4818 16.12 32.2118C16.12 31.9418 16.23 31.6918 16.41 31.5018L19.3 28.6118C19.69 28.2218 20.32 28.2218 20.71 28.6118C21.1 29.0018 21.1 29.6318 20.71 30.0218L18.53 32.2018L20.71 34.3818C21.1 34.7718 21.1 35.4018 20.71 35.7918C20.51 35.9918 20.26 36.0818 20 36.0818L20.01 36.1018Z" fill="white"/>
<path id="Vector_11" d="M23.53 36.1018C23.27 36.1018 23.02 36.0018 22.82 35.8118C22.43 35.4218 22.43 34.7918 22.82 34.4018L25 32.2218L22.82 30.0418C22.43 29.6518 22.43 29.0218 22.82 28.6318C23.21 28.2418 23.84 28.2418 24.23 28.6318L27.12 31.5218C27.31 31.7118 27.41 31.9618 27.41 32.2318C27.41 32.5018 27.3 32.7518 27.12 32.9418L24.23 35.8318C24.03 36.0318 23.78 36.1218 23.52 36.1218L23.53 36.1018Z" fill="white"/>
<path id="Vector_12" d="M32.27 61.1118H26.13C25.2298 61.1118 24.5 61.8416 24.5 62.7418V62.7518C24.5 63.652 25.2298 64.3818 26.13 64.3818H32.27C33.1702 64.3818 33.9 63.652 33.9 62.7518V62.7418C33.9 61.8416 33.1702 61.1118 32.27 61.1118Z" fill="#AFE0DD"/>
<path id="Vector_13" d="M36.17 55.0218H26.13C25.2298 55.0218 24.5 55.7516 24.5 56.6518V56.6618C24.5 57.562 25.2298 58.2918 26.13 58.2918H36.17C37.0702 58.2918 37.8 57.562 37.8 56.6618V56.6518C37.8 55.7516 37.0702 55.0218 36.17 55.0218Z" fill="#AFE0DD"/>
<path id="Vector_14" d="M38.57 48.9418H26.13C25.2298 48.9418 24.5 49.6715 24.5 50.5718V50.5818C24.5 51.482 25.2298 52.2118 26.13 52.2118H38.57C39.4702 52.2118 40.2 51.482 40.2 50.5818V50.5718C40.2 49.6715 39.4702 48.9418 38.57 48.9418Z" fill="#AFE0DD"/>
<path id="Vector_15" d="M47.62 56.6618V51.0418H47.58L46.53 51.7718C46.34 51.9018 46.21 51.9518 46 51.9518C45.59 51.9518 45.28 51.6418 45.28 51.2118C45.28 50.9018 45.4 50.6618 45.71 50.4518L47.31 49.3618C47.76 49.0618 48.12 49.0118 48.54 49.0118C49.31 49.0118 49.76 49.4718 49.76 50.2118V56.6618C49.76 57.3018 49.33 57.7218 48.7 57.7218C48.07 57.7218 47.63 57.3018 47.63 56.6618H47.62Z" fill="#13706D"/>
<path id="Vector_16" d="M51.91 53.3518C51.91 50.5818 53.31 48.9318 55.53 48.9318C57.75 48.9318 59.14 50.5718 59.14 53.3418C59.14 56.1118 57.76 57.7918 55.53 57.7918C53.3 57.7918 51.91 56.1118 51.91 53.3518ZM56.96 53.3518C56.96 51.5018 56.42 50.6018 55.53 50.6018C54.64 50.6018 54.09 51.5118 54.09 53.3418C54.09 55.1718 54.64 56.1218 55.53 56.1218C56.42 56.1218 56.96 55.1918 56.96 53.3518Z" fill="#13706D"/>
<path id="Vector_17" d="M60.54 53.3518C60.54 50.5818 61.94 48.9318 64.16 48.9318C66.38 48.9318 67.77 50.5718 67.77 53.3418C67.77 56.1118 66.39 57.7918 64.16 57.7918C61.93 57.7918 60.54 56.1118 60.54 53.3518ZM65.59 53.3518C65.59 51.5018 65.05 50.6018 64.16 50.6018C63.27 50.6018 62.72 51.5118 62.72 53.3418C62.72 55.1718 63.27 56.1218 64.16 56.1218C65.05 56.1218 65.59 55.1918 65.59 53.3518Z" fill="#13706D"/>
<path id="Vector_18" d="M46.83 63.3918V60.2018C46.83 59.9318 46.99 59.7918 47.22 59.7918C47.45 59.7918 47.61 59.9318 47.61 60.2018V62.0018H47.62L48.67 60.9518C48.78 60.8418 48.86 60.7918 48.98 60.7918C49.18 60.7918 49.33 60.9418 49.33 61.1318C49.33 61.2518 49.3 61.3218 49.18 61.4318L48.44 62.1318L49.25 63.1618C49.34 63.2818 49.36 63.3518 49.36 63.4518C49.36 63.6618 49.21 63.8118 48.98 63.8118C48.81 63.8118 48.72 63.7518 48.59 63.5618L47.85 62.5818L47.6 62.8118V63.4018C47.6 63.6718 47.44 63.8118 47.21 63.8118C46.98 63.8118 46.82 63.6718 46.82 63.4018L46.83 63.3918Z" fill="#13706D"/>
<path id="Vector_19" d="M49.95 64.3018C49.91 64.2318 49.89 64.1518 49.89 64.0818C49.89 63.9118 50.01 63.7918 50.21 63.7918C50.31 63.7918 50.39 63.8218 50.48 63.9018C50.69 64.1018 50.9 64.2118 51.16 64.2218C51.59 64.2218 51.85 63.9818 51.85 63.6218V63.1618H51.83C51.69 63.4718 51.36 63.6818 50.94 63.6818C50.22 63.6818 49.77 63.1318 49.77 62.2518C49.77 61.3718 50.21 60.8018 50.96 60.8018C51.38 60.8018 51.69 61.0218 51.84 61.3518H51.86V61.1918C51.86 60.9218 52.03 60.7918 52.26 60.7918C52.49 60.7918 52.65 60.9218 52.65 61.1918V63.6318C52.65 64.3818 52.1 64.8418 51.17 64.8318C50.58 64.8318 50.14 64.6018 49.95 64.3018ZM51.85 62.2618C51.85 61.7418 51.6 61.4018 51.2 61.4018C50.8 61.4018 50.57 61.7318 50.57 62.2518C50.57 62.7718 50.81 63.0918 51.2 63.0918C51.59 63.0918 51.85 62.7818 51.85 62.2518V62.2618Z" fill="#13706D"/>
<path id="Vector_20" d="M54.58 62.1218C54.58 61.0618 55.19 60.4518 56.14 60.4518C56.75 60.4518 57.21 60.7018 57.46 61.1618C57.51 61.2618 57.54 61.3618 57.54 61.4618C57.54 61.6718 57.4 61.8118 57.18 61.8118C57 61.8118 56.89 61.7418 56.8 61.5618C56.65 61.2618 56.44 61.1118 56.15 61.1118C55.7 61.1118 55.42 61.4918 55.42 62.1218C55.42 62.7518 55.7 63.1418 56.16 63.1418C56.46 63.1418 56.68 63.0018 56.81 62.6918C56.9 62.5118 57 62.4418 57.17 62.4418C57.4 62.4418 57.56 62.5918 57.56 62.8018C57.56 62.8818 57.54 62.9618 57.51 63.0418C57.31 63.5018 56.8 63.8018 56.18 63.8018C55.18 63.8018 54.59 63.1818 54.59 62.1318L54.58 62.1218Z" fill="#13706D"/>
<path id="Vector_21" d="M58.1 62.1318C58.1 61.1018 58.72 60.4518 59.7 60.4518C60.68 60.4518 61.3 61.0918 61.3 62.1318C61.3 63.1718 60.68 63.8018 59.7 63.8018C58.72 63.8018 58.1 63.1618 58.1 62.1318ZM60.46 62.1318C60.46 61.5118 60.16 61.1218 59.7 61.1218C59.24 61.1218 58.94 61.5118 58.94 62.1318C58.94 62.7518 59.24 63.1318 59.7 63.1318C60.16 63.1318 60.46 62.7418 60.46 62.1318Z" fill="#13706D"/>
<path id="Vector_22" d="M61.86 63.3918C61.86 63.2418 61.93 63.1318 62.09 62.9918L63.01 62.1518C63.39 61.8018 63.49 61.6618 63.49 61.4518C63.49 61.2218 63.31 61.0518 63.05 61.0518C62.84 61.0518 62.69 61.1518 62.57 61.3718C62.47 61.5318 62.37 61.5918 62.2 61.5918C61.99 61.5918 61.86 61.4718 61.86 61.2618C61.86 61.2018 61.86 61.1418 61.89 61.0818C62.03 60.7118 62.46 60.4218 63.05 60.4218C63.79 60.4218 64.27 60.8118 64.27 61.3818C64.27 61.8018 64.06 62.0318 63.55 62.5018L62.91 63.0918V63.1118H64.03C64.24 63.1118 64.36 63.2318 64.36 63.4318C64.36 63.6318 64.24 63.7518 64.03 63.7518H62.24C61.98 63.7518 61.85 63.6018 61.85 63.4018L61.86 63.3918Z" fill="#13706D"/>
<path id="Vector_23" d="M64.81 62.5418C64.81 61.7518 65.28 61.2518 66.03 61.2518C66.78 61.2518 67.23 61.7318 67.23 62.3918C67.23 62.5918 67.12 62.7018 66.91 62.7018H65.58V62.7418C65.58 63.0418 65.78 63.2418 66.06 63.2418C66.28 63.2418 66.43 63.1718 66.6 62.9918C66.68 62.9118 66.75 62.8818 66.85 62.8818C67.01 62.8818 67.15 62.9818 67.15 63.1618C67.15 63.2218 67.13 63.2818 67.1 63.3418C66.94 63.6318 66.54 63.8018 66.06 63.8018C65.28 63.8018 64.81 63.3318 64.81 62.5318V62.5418ZM66.48 62.2418C66.47 61.9818 66.29 61.8118 66.04 61.8118C65.79 61.8118 65.61 61.9918 65.59 62.2418H66.48Z" fill="#13706D"/>
<path id="Vector_24" d="M63.94 32.6918C62.92 32.5218 61.94 32.6318 61.07 32.9518C59.86 31.6318 58.1 30.8318 56.17 30.9018C53.08 31.0218 50.59 33.3318 50.16 36.2918C49.3 36.0218 48.33 35.9918 47.28 36.6118C46.05 37.3418 45.21 38.6618 45.29 40.0918C45.41 42.1318 47.14 43.7118 49.19 43.6318C50.46 43.5818 51.55 42.9118 52.19 41.9318C53.37 42.9918 54.94 43.6118 56.65 43.5518C57.69 43.5118 58.66 43.2218 59.52 42.7418C60.53 43.5318 61.82 43.9918 63.21 43.9318C66.68 43.8018 69.3 40.5818 68.51 37.0218C68.02 34.8118 66.18 33.0818 63.95 32.7118L63.94 32.6918Z" fill="#AFE0DD"/>
<path id="Vector_25" d="M62.98 44.9118C61.72 44.9118 60.48 44.5518 59.42 43.8818C58.55 44.2718 57.63 44.4918 56.67 44.5318C55.12 44.6018 53.6 44.1518 52.32 43.2918C51.49 44.0918 50.38 44.5718 49.21 44.6118C46.63 44.7318 44.43 42.7018 44.28 40.1318C44.18 38.3818 45.13 36.6918 46.76 35.7318C47.59 35.2418 48.47 35.0418 49.38 35.1118C50.26 32.1518 52.95 30.0118 56.12 29.8918C58.05 29.8118 59.92 30.5118 61.34 31.8118C62.24 31.5818 63.16 31.5418 64.1 31.7018C66.74 32.1418 68.89 34.1818 69.47 36.7818C69.9 38.7418 69.46 40.7618 68.25 42.3318C67.04 43.9018 65.21 44.8418 63.23 44.9118C63.15 44.9118 63.07 44.9118 62.98 44.9118ZM59.5 41.7118C59.72 41.7118 59.94 41.7818 60.12 41.9218C60.98 42.5918 62.06 42.9418 63.15 42.9018C64.53 42.8518 65.81 42.1918 66.66 41.0918C67.52 39.9818 67.82 38.6018 67.51 37.2018C67.11 35.3918 65.61 33.9718 63.77 33.6618C62.96 33.5318 62.16 33.6018 61.4 33.8718C61.02 34.0018 60.6 33.9018 60.32 33.6018C59.26 32.4418 57.76 31.8218 56.2 31.8718C53.64 31.9718 51.51 33.8718 51.14 36.4118C51.1 36.7018 50.93 36.9518 50.68 37.1118C50.43 37.2718 50.13 37.3018 49.85 37.2218C49.08 36.9818 48.44 37.0518 47.78 37.4418C46.81 38.0118 46.23 39.0118 46.28 40.0018C46.37 41.4918 47.64 42.6518 49.14 42.6018C50.03 42.5718 50.85 42.1018 51.34 41.3518C51.5 41.1118 51.76 40.9418 52.05 40.9118C52.34 40.8718 52.63 40.9618 52.85 41.1618C53.89 42.0918 55.22 42.5718 56.6 42.5218C57.45 42.4918 58.26 42.2618 59.01 41.8318C59.16 41.7418 59.33 41.7018 59.5 41.7018V41.7118Z" fill="#13706D"/>
<path id="Vector_26" d="M19 53.0018C20.3421 53.0018 21.43 51.9138 21.43 50.5718C21.43 49.2297 20.3421 48.1418 19 48.1418C17.658 48.1418 16.57 49.2297 16.57 50.5718C16.57 51.9138 17.658 53.0018 19 53.0018Z" fill="#AFE0DD"/>
<path id="Vector_27" d="M19 59.0918C20.3421 59.0918 21.43 58.0039 21.43 56.6618C21.43 55.3198 20.3421 54.2318 19 54.2318C17.658 54.2318 16.57 55.3198 16.57 56.6618C16.57 58.0039 17.658 59.0918 19 59.0918Z" fill="#AFE0DD"/>
<path id="Vector_28" d="M19 65.1718C20.3421 65.1718 21.43 64.0839 21.43 62.7418C21.43 61.3998 20.3421 60.3118 19 60.3118C17.658 60.3118 16.57 61.3998 16.57 62.7418C16.57 64.0839 17.658 65.1718 19 65.1718Z" fill="#AFE0DD"/>
</g>
</svg>

<svg xmlns="http://www.w3.org/2000/svg" width="89" height="89" fill="none"><path fill="#AFE0DD" d="M76.18 8.682H13.29c-.9 0-1.63.73-1.63 1.63v.01c0 .9.73 1.63 1.63 1.63h62.89c.9 0 1.63-.73 1.63-1.63v-.01c0-.9-.73-1.63-1.63-1.63m0-6.21H13.29c-.9 0-1.63.73-1.63 1.63v.01c0 .9.73 1.63 1.63 1.63h62.89c.9 0 1.63-.73 1.63-1.63v-.01c0-.9-.73-1.63-1.63-1.63m-23.61 12.42H13.29c-.9 0-1.63.73-1.63 1.63v.01c0 .9.73 1.63 1.63 1.63h39.28c.9 0 1.63-.73 1.63-1.63v-.01c0-.9-.73-1.63-1.63-1.63m23.61 62.98H13.29c-.9 0-1.63.73-1.63 1.63v.01c0 .9.73 1.63 1.63 1.63h62.89c.9 0 1.63-.73 1.63-1.63v-.01c0-.9-.73-1.63-1.63-1.63m-9.42 6.21H40.12c-.9 0-1.63.73-1.63 1.63v.01c0 .9.73 1.63 1.63 1.63h26.64c.9 0 1.63-.73 1.63-1.63v-.01c0-.9-.73-1.63-1.63-1.63m-34.48 0H13.1c-.9 0-1.63.73-1.63 1.63v.01c0 .9.73 1.63 1.63 1.63h19.18c.9 0 1.63-.73 1.63-1.63v-.01c0-.9-.73-1.63-1.63-1.63"/><path fill="#fff" d="M73.74 24.282H15.25a3.83 3.83 0 0 0-3.83 3.83v39.5a3.83 3.83 0 0 0 3.83 3.83h58.49a3.83 3.83 0 0 0 3.83-3.83v-39.5a3.83 3.83 0 0 0-3.83-3.83"/><path fill="#13706D" d="M73.74 72.442H15.26c-2.67 0-4.83-2.17-4.83-4.83v-39.49c0-2.67 2.17-4.83 4.83-4.83h58.48c2.67 0 4.83 2.17 4.83 4.83v39.49c0 2.67-2.17 4.83-4.83 4.83m-58.48-47.15c-1.56 0-2.83 1.27-2.83 2.83v39.49c0 1.56 1.27 2.83 2.83 2.83h58.48c1.56 0 2.83-1.27 2.83-2.83v-39.49c0-1.56-1.27-2.83-2.83-2.83z"/><path fill="#13706D" d="M15.29 25.142h16.02v10.89c0 1.8-1.46 3.25-3.25 3.25H12.24v-11.09a3.05 3.05 0 0 1 3.05-3.05"/><path fill="#fff" d="M20.01 36.102c-.26 0-.51-.1-.71-.29l-2.89-2.89a1 1 0 0 1-.29-.71c0-.27.11-.52.29-.71l2.89-2.89a.996.996 0 1 1 1.41 1.41l-2.18 2.18 2.18 2.18a.996.996 0 0 1-.71 1.7zm3.52 0c-.26 0-.51-.1-.71-.29a.996.996 0 0 1 0-1.41l2.18-2.18-2.18-2.18a.996.996 0 1 1 1.41-1.41l2.89 2.89c.19.19.29.44.29.71s-.11.52-.29.71l-2.89 2.89c-.2.2-.45.29-.71.29z"/><path fill="#AFE0DD" d="M32.27 61.112h-6.14c-.9 0-1.63.73-1.63 1.63v.01c0 .9.73 1.63 1.63 1.63h6.14c.9 0 1.63-.73 1.63-1.63v-.01c0-.9-.73-1.63-1.63-1.63m3.9-6.09H26.13c-.9 0-1.63.73-1.63 1.63v.01c0 .9.73 1.63 1.63 1.63h10.04c.9 0 1.63-.73 1.63-1.63v-.01c0-.9-.73-1.63-1.63-1.63m2.4-6.08H26.13c-.9 0-1.63.73-1.63 1.63v.01c0 .9.73 1.63 1.63 1.63h12.44c.9 0 1.63-.73 1.63-1.63v-.01c0-.9-.73-1.63-1.63-1.63"/><path fill="#13706D" d="M47.62 56.662v-5.62h-.04l-1.05.73c-.19.13-.32.18-.53.18-.41 0-.72-.31-.72-.74 0-.31.12-.55.43-.76l1.6-1.09c.45-.3.81-.35 1.23-.35.77 0 1.22.46 1.22 1.2v6.45c0 .64-.43 1.06-1.06 1.06s-1.07-.42-1.07-1.06zm4.29-3.31c0-2.77 1.4-4.42 3.62-4.42s3.61 1.64 3.61 4.41-1.38 4.45-3.61 4.45-3.62-1.68-3.62-4.44m5.05 0c0-1.85-.54-2.75-1.43-2.75s-1.44.91-1.44 2.74.55 2.78 1.44 2.78 1.43-.93 1.43-2.77m3.58 0c0-2.77 1.4-4.42 3.62-4.42s3.61 1.64 3.61 4.41-1.38 4.45-3.61 4.45-3.62-1.68-3.62-4.44m5.05 0c0-1.85-.54-2.75-1.43-2.75s-1.44.91-1.44 2.74.55 2.78 1.44 2.78 1.43-.93 1.43-2.77m-18.76 10.04v-3.19c0-.27.16-.41.39-.41s.39.14.39.41v1.8h.01l1.05-1.05c.11-.11.19-.16.31-.16.2 0 .35.15.35.34 0 .12-.03.19-.15.3l-.74.7.81 1.03c.09.12.11.19.11.29 0 .21-.15.36-.38.36-.17 0-.26-.06-.39-.25l-.74-.98-.25.23v.59c0 .27-.16.41-.39.41s-.39-.14-.39-.41zm3.12.91a.46.46 0 0 1-.06-.22c0-.17.12-.29.32-.29.1 0 .18.03.27.11.21.2.42.31.68.32.43 0 .69-.24.69-.6v-.46h-.02c-.14.31-.47.52-.89.52-.72 0-1.17-.55-1.17-1.43s.44-1.45 1.19-1.45c.42 0 .73.22.88.55h.02v-.16c0-.27.17-.4.4-.4s.39.13.39.4v2.44c0 .75-.55 1.21-1.48 1.2-.59 0-1.03-.23-1.22-.53m1.9-2.04c0-.52-.25-.86-.65-.86s-.63.33-.63.85.24.84.63.84.65-.31.65-.84zm2.73-.14c0-1.06.61-1.67 1.56-1.67.61 0 1.07.25 1.32.71.05.1.08.2.08.3 0 .21-.14.35-.36.35-.18 0-.29-.07-.38-.25-.15-.3-.36-.45-.65-.45-.45 0-.73.38-.73 1.01s.28 1.02.74 1.02c.3 0 .52-.14.65-.45.09-.18.19-.25.36-.25.23 0 .39.15.39.36 0 .08-.02.16-.05.24-.2.46-.71.76-1.33.76-1 0-1.59-.62-1.59-1.67zm3.52.01c0-1.03.62-1.68 1.6-1.68s1.6.64 1.6 1.68-.62 1.67-1.6 1.67-1.6-.64-1.6-1.67m2.36 0c0-.62-.3-1.01-.76-1.01s-.76.39-.76 1.01.3 1 .76 1 .76-.39.76-1m1.4 1.26c0-.15.07-.26.23-.4l.92-.84c.38-.35.48-.49.48-.7 0-.23-.18-.4-.44-.4-.21 0-.36.1-.48.32-.1.16-.2.22-.37.22-.21 0-.34-.12-.34-.33 0-.06 0-.12.03-.18.14-.37.57-.66 1.16-.66.74 0 1.22.39 1.22.96 0 .42-.21.65-.72 1.12l-.64.59v.02h1.12c.21 0 .33.12.33.32s-.12.32-.33.32h-1.79c-.26 0-.39-.15-.39-.35zm2.95-.85c0-.79.47-1.29 1.22-1.29s1.2.48 1.2 1.14c0 .2-.11.31-.32.31h-1.33v.04c0 .3.2.5.48.5.22 0 .37-.07.54-.25a.32.32 0 0 1 .25-.11c.16 0 .3.1.3.28 0 .06-.02.12-.05.18-.16.29-.56.46-1.04.46-.78 0-1.25-.47-1.25-1.27zm1.67-.3c-.01-.26-.19-.43-.44-.43s-.43.18-.45.43z"/><path fill="#AFE0DD" d="M63.94 32.692c-1.02-.17-2-.06-2.87.26a6.313 6.313 0 0 0-10.91 3.34c-.86-.27-1.83-.3-2.88.32-1.23.73-2.07 2.05-1.99 3.48a3.763 3.763 0 0 0 3.9 3.54c1.27-.05 2.36-.72 3-1.7a6.31 6.31 0 0 0 7.33.81c1.01.79 2.3 1.25 3.69 1.19a5.648 5.648 0 0 0 5.3-6.91c-.49-2.21-2.33-3.94-4.56-4.31z"/><path fill="#13706D" d="M62.98 44.912c-1.26 0-2.5-.36-3.56-1.03-.87.39-1.79.61-2.75.65-1.55.07-3.07-.38-4.35-1.24-.83.8-1.94 1.28-3.11 1.32-2.58.12-4.78-1.91-4.93-4.48-.1-1.75.85-3.44 2.48-4.4.83-.49 1.71-.69 2.62-.62.88-2.96 3.57-5.1 6.74-5.22 1.93-.08 3.8.62 5.22 1.92.9-.23 1.82-.27 2.76-.11 2.64.44 4.79 2.48 5.37 5.08.43 1.96-.01 3.98-1.22 5.55a6.61 6.61 0 0 1-5.02 2.58zm-3.48-3.2c.22 0 .44.07.62.21a4.64 4.64 0 0 0 6.54-.83c.86-1.11 1.16-2.49.85-3.89-.4-1.81-1.9-3.23-3.74-3.54a4.76 4.76 0 0 0-2.37.21c-.38.13-.8.03-1.08-.27a5.33 5.33 0 0 0-4.12-1.73c-2.56.1-4.69 2-5.06 4.54-.04.29-.21.54-.46.7s-.55.19-.83.11c-.77-.24-1.41-.17-2.07.22-.97.57-1.55 1.57-1.5 2.56a2.777 2.777 0 0 0 2.86 2.6c.89-.03 1.71-.5 2.2-1.25.16-.24.42-.41.71-.44.29-.04.58.05.8.25 1.04.93 2.37 1.41 3.75 1.36a5.16 5.16 0 0 0 2.41-.69c.15-.09.32-.13.49-.13z"/><path fill="#AFE0DD" d="M19 53.002a2.43 2.43 0 1 0 0-4.86 2.43 2.43 0 0 0 0 4.86m0 6.09a2.43 2.43 0 1 0 0-4.86 2.43 2.43 0 0 0 0 4.86m0 6.08a2.43 2.43 0 1 0 0-4.86 2.43 2.43 0 0 0 0 4.86"/></svg>
